X: 6933
T: Cherry Blossom, The
R: polka
M: 2/4
K: Dmajor
|:E|DF FD|G2 B>c|dA/c/ d2|ed/4c/4B/ AG/4F/4E/|
D2 G/F/E/D/|GB- B>c|dA c/d/e/c/|df d:|
|:A|dc/d/ eA|dc/d/ e2|de =fe|de/d/ _B2|
A=F d_B|A_B/A/ E2|AA/=F/ d_B|A=F E:|

